alert-rhombus-outline.svg

<svg fill="currentColor" viewBox="0 0 24 24"><path d="M12 2c-.5 0-1 .19-1.41.59l-8 8c-.79.78-.79 2.04 0 2.82l8 8c.78.79 2.04.79 2.82 0l8-8c.79-.78.79-2.04 0-2.82l-8-8C13 2.19 12.5 2 12 2m0 2 8 8-8 8-8-8m7-5v6h2V7m-2 8v2h2v-2Z"/></svg>

<svg  viewBox="0 0 24 24" fill="currentColor"><path  d="M12 2C11.5 2 11 2.19 10.59 2.59L2.59 10.59C1.8 11.37 1.8 12.63 2.59 13.41L10.59 21.41C11.37 22.2 12.63 22.2 13.41 21.41L21.41 13.41C22.2 12.63 22.2 11.37 21.41 10.59L13.41 2.59C13 2.19 12.5 2 12 2M12 4L20 12L12 20L4 12M11 7V13H13V7M11 15V17H13V15Z"/></svg>
